t120 l4

; Verse
o3 eefgag>ed eefgag>ed eefgag>ed eefgag>ed2

; Chorus
o4 gagegefd gagegefd gagegefd o3 eefgag>ed2

; Verse
o3 eefgag>ed eefgag>ed eefgag>ed eefgag>ed2

; Chorus
o4 gagegefd gagegefd gagegefd o3 eefgag>ed2

; Bridge
o4 aaggffee aaggffed2

; Verse
o3 eefgag>ed eefgag>ed eefgag>ed eefgag>ed2

; Chorus
o4 gagegefd gagegefd gagegefd o3 eefgag>ed2

; Verse
o3 eefgag>ed eefgag>ed eefgag>ed eefgag>ed2

; Chorus
o4 gagegefd gagegefd gagegefd o3 eefgag>ed2